X:5305
T:Put Me In the Big Chest
T:Cuir's a' Chiste Mhoir Mi
R:Reel
A:Cape Breton
S:Sandy MacIntyre
N:From the playing of Sandy MacIntyre
P:ABCB
O:England
M:C
L:1/8
K:A
P:A
F | EFAB c2cf | ecBA F/F/F AF | EFAB cBcF | ecBc A/A/A A :|
P:B
c | efec eAAc | efec BABc | efec efaf | ecBc A/A/A A :|
P:C
F | EFAB c2cB | c2cB ce fz |  EFAB cBcF | ecBc A/A/A A :|
